X:134
T:Mole Catcher. THO2.134, The
O:London
M:6/8
L:1/8
Q:3/8=100
B:Thompson's Compleat Coll. of 200 Favourite Country Dances, vol.2,1765
Z:Transcribed and edited by Fynn Titford-Mock, 2007
Z:abc's:AK/Fiddler's Companion/VMP 2009
%%staves (1 2)
K:D
V:1
[V:1]|:a|(3f/g/a/ a2 afa|(3f/g/a/ a2 afa|ga/g/f/e/ fg/f/e/d/|ecA A2a|
[V:2]|:z|A6|A6|x6|x6|
%
[V:1](3f/g/a/ a2 afa|(3f/g/a/ a2 afa|ga/g/f/e/ fge|d3 D2:|
[V:2]A6|A6|x6|x5:|
%
[V:1]|:A|FAd (3f/g/a/ f2|(3g/a/b/ g2 (3f/g/a/ f2|FAd fg/f/e/d/|\
eAA A2G|
[V:2]|:z|x3A3|A3A3|x6|x6|
%
[V:1]FAd (3f/g/a/ f2|(3g/a/b/ g2 (3f/g/a/ f2|gb/a/g/f/ ea/g/f/e/|\
dA/G/F/E/ D2:|
[V:2]x3A3|A3A3|x6|x5:||

